X:1
T:Brid Harper's
R:hornpipe
M:4/4
L:1/8
K:C
EF|:Gc (3cBc AcGc|ecgc egce|fedc BGAB|cdef gzEF|
|Gc (3cBc AcGc|ecgc egce|fedc BGAB|1 c2BB c2EF:|2 c2BB cAGE|]
|:~C2EC A,CG,A,|CEGc AGEA|cAGc AFDC|B,CDE DB,~B,2|
|~C2EC A,CG,A,|CEGc AGEA|cAGc AFDC|1 B,CDB, C2CB,:|2 B,CDB, C2EF|]